X: 35141
T: Ronas Voe
R: waltz
M: 3/4
K: Gmajor
|:B,2 C2|D6|B4 F2|A2 G4|D4 G2|E4 G2|A4 G2|B6-|B2 B,2 C2|
D6|B2 A2 F2|A2 G2 F2|G4 B2|A6|A4 E2|A6-|A2 B,2 C2|
D2 B,2 D2|B4 F2|A2 G4|D4 G2|E4 G2|A4 G2|B6-|B4 D2|
E6|F6|G6|c6|B4 D2|B4 A2|G6-|G2:|

